svg/other/coathanger_line.svg

<?xml version="1.0" encoding="UTF-8"?>
<svg width="24px" height="24px" viewBox="0 0 24 24" version="1.1" xmlns="http://www.w3.org/2000/svg" xmlns:xlink="http://www.w3.org/1999/xlink">
    <title>coathanger_line</title>
    <g id="Icon" stroke="none" stroke-width="1" fill="none" fill-rule="evenodd">
        <g id="Business" transform="translate(-528.000000, -480.000000)">
            <g id="coathanger_line" transform="translate(528.000000, 480.000000)">
                <path d="M24,0 L24,24 L0,24 L0,0 L24,0 Z M12.5935,23.2578 L12.5819,23.2595 L12.5109,23.295 L12.4919,23.2987 L12.4767,23.295 L12.4057,23.2595 C12.3958,23.2564 12.387,23.259 12.3821,23.2649 L12.378,23.2758 L12.3609,23.7031 L12.3659,23.7235 L12.3769,23.7357 L12.4805,23.8097 L12.4953,23.8136 L12.5071,23.8097 L12.6107,23.7357 L12.6233,23.7197 L12.6267,23.7031 L12.6096,23.2758 C12.6076,23.2657 12.601,23.2593 12.5935,23.2578 Z M12.8584,23.1453 L12.8445,23.1473 L12.6598,23.2397 L12.6499,23.2499 L12.6472,23.2611 L12.6651,23.6906 L12.6699,23.7034 L12.6784,23.7105 L12.8793,23.8032 C12.8914,23.8069 12.9022,23.803 12.9078,23.7952 L12.9118,23.7812 L12.8777,23.1665 C12.8753,23.1546 12.8674,23.147 12.8584,23.1453 Z M12.143,23.1473 C12.1332,23.1424 12.1222,23.1453 12.1156,23.1526 L12.1099,23.1665 L12.0758,23.7812 C12.0751,23.7927 12.0828,23.8019 12.0926,23.8046 L12.1083,23.8032 L12.3092,23.7105 L12.3186,23.7024 L12.3225,23.6906 L12.3404,23.2611 L12.3372,23.2485 L12.3278,23.2397 L12.143,23.1473 Z" id="MingCute" fill-rule="nonzero"></path>
                <path d="M10.4999,7.5 C10.4999,6.67157 11.1715,6 11.9999,6 C12.8284,6 13.4999,6.67157 13.4999,7.5 C13.4999,8.11961 13.124,8.65373 12.5839,8.88237 C12.0402,9.1125 11.3029,9.62909 11.0721,10.4617 C11.069,10.4641 11.0659,10.4666 11.0629,10.469 L2.48829,17.3287 C1.38108,18.2145 2.00741,20 3.42533,20 L20.5745,20 C21.9925,20 22.6188,18.2145 21.5116,17.3287 L13.2953,10.7557 C13.3171,10.7447 13.3398,10.7342 13.3635,10.7242 C14.6172,10.1935 15.4999,8.95097 15.4999,7.5 C15.4999,5.567 13.9329,4 11.9999,4 C10.0669,4 8.49994,5.567 8.49994,7.5 C8.49994,8.05228 8.94765,8.5 9.49994,8.5 C10.0522,8.5 10.4999,8.05228 10.4999,7.5 Z M11.9999,12.2806 L19.1492,18 L4.85072,18 L11.9999,12.2806 Z" id="形状" fill="#09244B"></path>
            </g>
        </g>
    </g>
</svg>

<svg xmlns="http://www.w3.org/2000/svg" width="24" height="24"><g fill="none" fill-rule="evenodd"><path d="M24 0v24H0V0h24ZM12.594 23.258l-.012.002-.071.035-.02.004-.014-.004-.071-.036c-.01-.003-.019 0-.024.006l-.004.01-.017.428.005.02.01.013.104.074.015.004.012-.004.104-.074.012-.016.004-.017-.017-.427c-.002-.01-.009-.017-.016-.018Zm.264-.113-.014.002-.184.093-.01.01-.003.011.018.43.005.012.008.008.201.092c.012.004.023 0 .029-.008l.004-.014-.034-.614c-.003-.012-.01-.02-.02-.022Zm-.715.002a.023.023 0 0 0-.027.006l-.006.014-.034.614c0 .012.007.02.017.024l.015-.002.201-.093.01-.008.003-.011.018-.43-.003-.012-.01-.01-.184-.092Z"/><path fill="#09244B" d="M10.5 7.5a1.5 1.5 0 1 1 2.084 1.382c-.544.23-1.281.747-1.512 1.58l-.01.007-8.574 6.86c-1.107.886-.48 2.671.937 2.671h17.15c1.418 0 2.044-1.785.937-2.671l-8.217-6.573c.022-.011.045-.022.069-.032A3.5 3.5 0 1 0 8.5 7.5a1 1 0 1 0 2 0Zm1.5 4.78L19.15 18H4.85L12 12.28Z"/></g></svg>
